icons/svg/32x32/time/filled.svg

<svg width="32" height="32" fill="none" xmlns="http://www.w3.org/2000/svg">
  <path fill-rule="evenodd" clip-rule="evenodd" d="M19.707 21.707a.997.997 0 01-1.414 0l-4-4a.997.997 0 01-.263-.949l2-8a1 1 0 011.94.484l-1.863 7.451 3.6 3.6a.999.999 0 010 1.414zm8.567-12.526a7.111 7.111 0 00-5.455-5.455A32.186 32.186 0 0016 3c-2.34 0-4.621.25-6.819.725a7.112 7.112 0 00-5.455 5.456A32.172 32.172 0 003 16c0 2.34.25 4.621.726 6.819a7.111 7.111 0 005.455 5.455C11.379 28.75 13.66 29 16 29s4.621-.25 6.819-.726a7.111 7.111 0 005.455-5.455C28.75 20.621 29 18.34 29 16s-.25-4.621-.726-6.819z" fill="#000"/>
</svg>

<svg xmlns="http://www.w3.org/2000/svg" width="32" height="32" viewBox="0 0 32 32">
  <path fill-rule="evenodd" d="M19.707,21.707 C19.512,21.902 19.256,22 19,22 C18.744,22 18.488,21.902 18.293,21.707 L14.293,17.707 C14.045,17.459 13.944,17.099 14.03,16.758 L16.03,8.758 C16.164,8.221 16.706,7.894 17.242,8.03 C17.778,8.164 18.104,8.707 17.97,9.242 L16.107,16.693 L19.707,20.293 C20.098,20.684 20.098,21.316 19.707,21.707 M28.274,9.181 C27.684,6.447 25.553,4.316 22.819,3.726 C20.621,3.25 18.34,3 16,3 C13.66,3 11.379,3.25 9.181,3.725 C6.447,4.315 4.316,6.447 3.726,9.181 C3.25,11.378 3,13.659 3,16 C3,18.34 3.25,20.621 3.726,22.819 C4.316,25.553 6.447,27.684 9.181,28.274 C11.379,28.75 13.66,29 16,29 C18.34,29 20.621,28.75 22.819,28.274 C25.553,27.684 27.684,25.553 28.274,22.819 C28.75,20.621 29,18.34 29,16 C29,13.66 28.75,11.379 28.274,9.181"/>
</svg>
